X:790
T:Nelson Mandela's Welcome to Glasgow
C:Blair Douglas
S:Ross Peters, Crieff
Z:Nigel Gatherer
M:6/8
L:1/8
K:D
A | ddd def | AAA BAA | ABd dBA | ABd e2 
A | ddd def | AAA BAA | ABd edB | ABd d2 :| 
e | eaa fed | efe dBA | ABd dBA | ABd e2 
f | eaa fed | efe dBA | ABd edB | ABd d2 :| 
e | fff fad | fff faA | ABd dBA | ABd e2 
f | fff fad | fff faA | ABd edB | ABd d2 :| 
e | fdd aAf | AfA aAf | ABd dBA | ABd e2 
f | fdd aAf | AfA aAf | ABd edB | ABd d2 :| 
e | fdd ddd | ddd adf | ABd dBA | ABd e2 
f | fdd ddd | ddd adf | ABd edB | ABd d2 :| 
e | fdd dff | daa dff | ABd dBA | ABd e2 
f | fdd dff | daa dff | ABd edB | ABd d2 :|]
